svg/py.svg

<?xml version="1.0" encoding="UTF-8"?>
<svg xmlns="http://www.w3.org/2000/svg" xmlns:xlink="http://www.w3.org/1999/xlink" width="32" height="32" viewBox="0 0 32 32">
<rect x="-3.2" y="-3.2" width="38.4" height="38.4" fill="rgb(100%, 100%, 100%)" fill-opacity="1"/>
<path fill-rule="nonzero" fill="rgb(40%, 40%, 40%)" fill-opacity="1" d="M 32 32 L 0 32 L 0 0 L 32 0 Z M 3.105469 28.800781 L 28.929688 28.800781 L 28.929688 3.199219 L 3.105469 3.199219 "/>
<path fill-rule="nonzero" fill="rgb(99.607843%, 81.960784%, 25.882353%)" fill-opacity="1" d="M 15.648438 24.289062 C 13.632812 24.222656 12.382812 23.617188 12.0625 22.558594 L 12.03125 22.433594 L 12.03125 20.382812 C 12.03125 18.015625 12.03125 17.984375 12.160156 17.601562 C 12.382812 16.929688 12.929688 16.480469 13.757812 16.289062 L 13.953125 16.257812 L 16.289062 16.257812 C 17.953125 16.257812 18.65625 16.257812 18.71875 16.222656 C 19.199219 16.128906 19.488281 16.03125 19.777344 15.808594 C 20.128906 15.550781 20.414062 15.105469 20.511719 14.625 C 20.609375 14.273438 20.609375 14.304688 20.609375 13.054688 L 20.609375 11.902344 L 22.273438 11.902344 L 22.433594 11.9375 C 23.296875 12.191406 23.9375 12.992188 24.191406 14.242188 C 24.289062 14.71875 24.289062 14.753906 24.289062 15.96875 C 24.289062 17.152344 24.289062 17.152344 24.191406 17.566406 C 24.097656 17.953125 24 18.273438 23.839844 18.589844 C 23.519531 19.230469 23.039062 19.679688 22.433594 19.871094 C 22.082031 20 22.367188 19.96875 19.007812 20 L 15.96875 20 L 15.96875 20.578125 L 20 20.578125 L 20 22.65625 C 19.96875 22.785156 19.9375 22.945312 19.839844 23.105469 C 19.742188 23.265625 19.488281 23.519531 19.328125 23.648438 C 18.785156 24 17.953125 24.222656 16.863281 24.289062 Z M 18.433594 23.007812 C 18.816406 22.945312 19.105469 22.558594 19.039062 22.175781 C 18.984375 21.867188 18.742188 21.621094 18.433594 21.566406 C 18.207031 21.535156 17.976562 21.613281 17.8125 21.777344 C 17.652344 21.941406 17.574219 22.167969 17.601562 22.398438 C 17.664062 22.753906 17.953125 22.976562 18.304688 23.007812 Z M 9.792969 20.0625 C 9.308594 19.960938 8.878906 19.6875 8.574219 19.296875 C 7.96875 18.558594 7.679688 17.3125 7.710938 15.742188 C 7.742188 14.785156 7.871094 14.046875 8.191406 13.441406 C 8.574219 12.640625 9.152344 12.191406 9.917969 12.03125 C 10.082031 12 10.113281 12 13.054688 12 L 16.0625 12 C 16.097656 12 16.097656 11.96875 16.097656 11.710938 L 16.097656 11.425781 L 12.0625 11.425781 L 12.0625 10.367188 C 12.0625 9.214844 12.0625 9.25 12.160156 9.023438 C 12.511719 8.289062 13.503906 7.839844 15.105469 7.710938 C 15.230469 7.710938 15.519531 7.679688 15.808594 7.679688 C 17.601562 7.648438 18.878906 7.96875 19.585938 8.609375 C 19.648438 8.671875 19.742188 8.800781 19.808594 8.832031 C 19.902344 8.960938 20.03125 9.214844 20.097656 9.410156 L 20.128906 9.535156 L 20.128906 11.710938 C 20.128906 13.726562 20.128906 13.886719 20.097656 14.015625 C 20.058594 14.214844 19.992188 14.40625 19.902344 14.589844 C 19.648438 15.070312 19.199219 15.425781 18.589844 15.585938 C 18.207031 15.679688 18.367188 15.679688 15.808594 15.710938 C 13.246094 15.710938 13.410156 15.710938 13.054688 15.808594 C 12.351562 16 11.839844 16.542969 11.648438 17.3125 C 11.550781 17.664062 11.550781 17.632812 11.550781 18.878906 L 11.550781 20.0625 L 10.785156 20.0625 C 10.082031 20.097656 9.855469 20.097656 9.792969 20.0625 M 14.046875 10.335938 C 14.335938 10.207031 14.527344 9.855469 14.464844 9.566406 C 14.398438 9.28125 14.207031 9.054688 13.953125 8.992188 C 13.753906 8.925781 13.535156 8.953125 13.355469 9.0625 C 13.175781 9.175781 13.054688 9.359375 13.023438 9.566406 C 12.960938 9.917969 13.152344 10.273438 13.503906 10.367188 C 13.566406 10.398438 13.632812 10.398438 13.757812 10.398438 C 13.917969 10.398438 13.953125 10.398438 14.046875 10.335938 M 14.046875 10.335938 "/>
<path fill-rule="nonzero" fill="rgb(20.784314%, 44.313725%, 63.921569%)" fill-opacity="1" d="M 9.792969 20.0625 C 9.308594 19.960938 8.878906 19.6875 8.574219 19.296875 C 7.96875 18.558594 7.679688 17.3125 7.710938 15.742188 C 7.742188 14.785156 7.871094 14.046875 8.191406 13.441406 C 8.574219 12.640625 9.152344 12.191406 9.917969 12.03125 C 10.082031 12 10.113281 12 13.054688 12 L 16.0625 12 C 16.097656 12 16.097656 11.96875 16.097656 11.710938 L 16.097656 11.425781 L 12.0625 11.425781 L 12.0625 10.367188 C 12.0625 9.214844 12.0625 9.25 12.160156 9.023438 C 12.511719 8.289062 13.503906 7.839844 15.105469 7.710938 C 15.230469 7.710938 15.519531 7.679688 15.808594 7.679688 C 17.601562 7.648438 18.878906 7.96875 19.585938 8.609375 C 19.648438 8.671875 19.742188 8.800781 19.808594 8.832031 C 19.902344 8.960938 20.03125 9.214844 20.097656 9.410156 L 20.128906 9.535156 L 20.128906 11.710938 C 20.128906 13.726562 20.128906 13.886719 20.097656 14.015625 C 20.058594 14.214844 19.992188 14.40625 19.902344 14.589844 C 19.648438 15.070312 19.199219 15.425781 18.589844 15.585938 C 18.207031 15.679688 18.367188 15.679688 15.808594 15.710938 C 13.246094 15.710938 13.410156 15.710938 13.054688 15.808594 C 12.351562 16 11.839844 16.542969 11.648438 17.3125 C 11.550781 17.664062 11.550781 17.632812 11.550781 18.878906 L 11.550781 20.0625 L 10.785156 20.0625 C 10.082031 20.097656 9.855469 20.097656 9.792969 20.0625 M 14.046875 10.335938 C 14.335938 10.207031 14.527344 9.855469 14.464844 9.566406 C 14.398438 9.28125 14.207031 9.054688 13.953125 8.992188 C 13.753906 8.925781 13.535156 8.953125 13.355469 9.0625 C 13.175781 9.175781 13.054688 9.359375 13.023438 9.566406 C 12.960938 9.917969 13.152344 10.273438 13.503906 10.367188 C 13.566406 10.398438 13.632812 10.398438 13.757812 10.398438 C 13.917969 10.398438 13.953125 10.398438 14.046875 10.335938 M 14.046875 10.335938 "/>
</svg>

<svg role="img" viewBox="0 0 32 32" height="32" width="32" xmlns="http://www.w3.org/2000/svg"><path d="M-3.2-3.2h38.4v38.4H-3.2z" fill="rgb(100%, 100%, 100%)"/><path d="M32 32H0V0h32ZM3.105 28.8H28.93V3.2H3.105" fill="rgb(40%, 40%, 40%)"/><path d="M15.648 24.29c-2.015-.067-3.265-.673-3.585-1.731l-.032-.125v-2.051c0-2.367 0-2.399.13-2.781.222-.672.769-1.122 1.597-1.313l.195-.031h2.336c1.664 0 2.367 0 2.43-.035.48-.094.77-.192 1.058-.414.352-.258.637-.704.735-1.184.097-.352.097-.32.097-1.57v-1.153h1.664l.16.036c.864.253 1.505 1.054 1.758 2.304.098.477.098.512.098 1.727 0 1.183 0 1.183-.098 1.597-.093.387-.191.707-.351 1.024-.32.64-.8 1.09-1.406 1.281-.352.129-.067.098-3.426.129h-3.04v.578H20v2.078c-.031.13-.062.29-.16.45-.098.16-.352.414-.512.542-.543.352-1.375.575-2.465.641Zm2.786-1.282c.382-.063.671-.45.605-.832a.752.752 0 0 0-.605-.61.738.738 0 0 0-.622.211.758.758 0 0 0-.21.621c.062.356.351.579.703.61Zm-8.641-2.945a2.093 2.093 0 0 1-1.219-.766c-.605-.738-.894-1.985-.863-3.555.031-.957.16-1.695.48-2.3.383-.801.961-1.25 1.727-1.41.164-.032.195-.032 3.137-.032h3.008c.035 0 .035-.031.035-.29v-.284h-4.035v-1.059c0-1.152 0-1.117.097-1.344.352-.734 1.344-1.183 2.945-1.312.125 0 .415-.031.704-.031 1.793-.032 3.07.289 3.777.93.062.062.156.19.223.222.093.129.222.383.289.578l.03.125v2.176c0 2.016 0 2.176-.03 2.305a2.36 2.36 0 0 1-.196.574c-.254.48-.703.836-1.312.996-.383.094-.223.094-2.781.125-2.563 0-2.399 0-2.754.098-.703.191-1.215.734-1.407 1.504-.097.351-.097.32-.097 1.566v1.183h-.766c-.703.036-.93.036-.992 0m4.254-9.726c.289-.129.48-.48.418-.77-.067-.285-.258-.511-.512-.574a.716.716 0 0 0-.93.574c-.062.352.13.707.48.801.063.031.13.031.255.031.16 0 .195 0 .289-.062m0 0" fill="rgb(99.607843%, 81.960784%, 25.882353%)"/><path d="M9.793 20.063a2.093 2.093 0 0 1-1.219-.766c-.605-.738-.894-1.985-.863-3.555.031-.957.16-1.695.48-2.3.383-.801.961-1.25 1.727-1.41.164-.032.195-.032 3.137-.032h3.008c.035 0 .035-.031.035-.29v-.284h-4.035v-1.059c0-1.152 0-1.117.097-1.344.352-.734 1.344-1.183 2.945-1.312.125 0 .415-.031.704-.031 1.793-.032 3.07.289 3.777.93.062.062.156.19.223.222.093.129.222.383.289.578l.03.125v2.176c0 2.016 0 2.176-.03 2.305a2.36 2.36 0 0 1-.196.574c-.254.48-.703.836-1.312.996-.383.094-.223.094-2.781.125-2.563 0-2.399 0-2.754.098-.703.191-1.215.734-1.407 1.504-.097.351-.097.32-.097 1.566v1.183h-.766c-.703.036-.93.036-.992 0m4.254-9.726c.289-.129.48-.48.418-.77-.067-.285-.258-.511-.512-.574a.716.716 0 0 0-.93.574c-.062.352.13.707.48.801.063.031.13.031.255.031.16 0 .195 0 .289-.062m0 0" fill="rgb(20.784314%, 44.313725%, 63.921569%)"/></svg>
